X:1
T:Title
%%score { 1 | 2 }
L:1/8
Q:1/4=107
M:6/8
K:G
V:1 treble nm="Grand Piano"
V:2 bass 
V:1
 [EG]2 [EG] [^DA]2 [DF] | [EG]3 .[Gc]3 | c2 B A2 B | [Ec]6 | [EG]2 [EG] [^DA]2 [DF] | [EG]3 [Ge]3 | %6
w: L.~O.~Emerson * * *||||||
 [Gd]2 [Fc] [GB]2 [FA] | G6 | d2 B A2 G | [EG]3 .[Ec]3 | d2 B A2 G | [Ec]6 | [EG]2 [EG] [Gc]2 d | %13
w: |||||||
 e3 [Gc]3 | d2 d c2 B | [Ec]6 | [EG]2 [EG] [^DA]2 [DF] | [EG]3 [Ec]3 | [Ge]2 [Gd] [Gc]2 [Ge] | %19
w: ||||||
 [Gd]6 | [Ge]2 [Ec] [Gc]2 [Gc] | c3 .A3 |[M:7/8] G2 e d3 [Ec] |[M:3/4] [Ec]6 |] %24
w: |||||
V:2
 [C,C]2 [C,G,] [C,F,]2 [C,A,] | [C,C]3 .[E,C]3 | [G,D=F]2 [G,DF] [G,DF]2 [G,DF] | [C,C]6 | %4
 [C,C]2 [C,G,] [C,F,]2 [C,A,] | [C,C]3 [C,C]3 | [D,B,]2 [D,A,] [D,D]2 [D,C] | [G,B,]6 | %8
 [G,B,=F]2 [G,DF] [G,CF]2 [G,B,F] | [C,C]3 .[C,G,]3 | [G,B,=F]2 [G,DF] [G,CF]2 [G,B,F] | [C,C]6 | %12
 [C,C]2 [C,C] [E,C]2[K:treble] [G,B,G] | [CG]3[K:bass] [E,C]3 | %14
 [=F,A,=F]2[K:treble] [F,A,F] [G,E]2 [G,F] | [C,G,]6 | [C,C]2 [C,G,] [C,F,]2 [C,A,] | %17
 [C,C]3 [C,G,]3 | [C,C]2 [D,B,] [E,C]2 [C,C] | [G,B,]6 | [C,C]2 [C,C] [E,C]2 [E,_B,] | %21
 [=F,A,=F]3 .[F,CF]3 |[M:7/8] [G,CE]2 [G,CG] [G,B,=F]3[K:bass] [C,G,] |[M:3/4] [C,G,]6 |] %24

